dist/assets/img/sofa-icon-04.svg

<svg width="56" height="31" fill="none" xmlns="http://www.w3.org/2000/svg"><path fill-rule="evenodd" clip-rule="evenodd" d="M50 0H6C2.7 0 0 2.7 0 6v3h3v22h1v-3h48v3h1V9h3V6c0-3.3-2.7-6-6-6Zm-3.5 1c.8 0 1.5.7 1.5 1.5S47.3 4 46.5 4 45 3.3 45 2.5 45.7 1 46.5 1Zm-9 0c.8 0 1.5.7 1.5 1.5S38.3 4 37.5 4 36 3.3 36 2.5 36.7 1 37.5 1Zm-10 0c.8 0 1.5.7 1.5 1.5S28.3 4 27.5 4 26 3.3 26 2.5 26.7 1 27.5 1Zm-9 0c.8 0 1.5.7 1.5 1.5S19.3 4 18.5 4 17 3.3 17 2.5 17.7 1 18.5 1Zm-10 0c.8 0 1.5.7 1.5 1.5S9.3 4 8.5 4 7 3.3 7 2.5 7.7 1 8.5 1ZM52 27H4v-8h48v8Zm0-9H4V9h48v9Zm3-10H1V6c0-2.8 2.2-5 5-5h.5c-.3.4-.5.9-.5 1.5C6 3.9 7.1 5 8.5 5S11 3.9 11 2.5c0-.6-.2-1.1-.5-1.5h6c-.3.4-.5.9-.5 1.5C16 3.9 17.1 5 18.5 5S21 3.9 21 2.5c0-.6-.2-1.1-.5-1.5h5c-.3.4-.5.9-.5 1.5C25 3.9 26.1 5 27.5 5S30 3.9 30 2.5c0-.6-.2-1.1-.5-1.5h6c-.3.4-.5.9-.5 1.5C35 3.9 36.1 5 37.5 5S40 3.9 40 2.5c0-.6-.2-1.1-.5-1.5h5c-.3.4-.5.9-.5 1.5C44 3.9 45.1 5 46.5 5S49 3.9 49 2.5c0-.6-.2-1.1-.5-1.5H50c2.8 0 5 2.2 5 5v2Z" fill="#383838"/></svg>

<svg width="56" height="31" viewBox="0 0 56 31" fill="none" xmlns="http://www.w3.org/2000/svg">
<path fill-rule="evenodd" clip-rule="evenodd" d="M50 0H6C2.7 0 0 2.7 0 6V9H3V31H4V28H52V31H53V9H56V6C56 2.7 53.3 0 50 0ZM46.5 1C47.3 1 48 1.7 48 2.5C48 3.3 47.3 4 46.5 4C45.7 4 45 3.3 45 2.5C45 1.7 45.7 1 46.5 1ZM37.5 1C38.3 1 39 1.7 39 2.5C39 3.3 38.3 4 37.5 4C36.7 4 36 3.3 36 2.5C36 1.7 36.7 1 37.5 1ZM27.5 1C28.3 1 29 1.7 29 2.5C29 3.3 28.3 4 27.5 4C26.7 4 26 3.3 26 2.5C26 1.7 26.7 1 27.5 1ZM18.5 1C19.3 1 20 1.7 20 2.5C20 3.3 19.3 4 18.5 4C17.7 4 17 3.3 17 2.5C17 1.7 17.7 1 18.5 1ZM8.5 1C9.3 1 10 1.7 10 2.5C10 3.3 9.3 4 8.5 4C7.7 4 7 3.3 7 2.5C7 1.7 7.7 1 8.5 1ZM52 27H4V19H52V27ZM52 18H4V9H52V18ZM55 8H1V6C1 3.2 3.2 1 6 1H6.5C6.2 1.4 6 1.9 6 2.5C6 3.9 7.1 5 8.5 5C9.9 5 11 3.9 11 2.5C11 1.9 10.8 1.4 10.5 1H16.5C16.2 1.4 16 1.9 16 2.5C16 3.9 17.1 5 18.5 5C19.9 5 21 3.9 21 2.5C21 1.9 20.8 1.4 20.5 1H25.5C25.2 1.4 25 1.9 25 2.5C25 3.9 26.1 5 27.5 5C28.9 5 30 3.9 30 2.5C30 1.9 29.8 1.4 29.5 1H35.5C35.2 1.4 35 1.9 35 2.5C35 3.9 36.1 5 37.5 5C38.9 5 40 3.9 40 2.5C40 1.9 39.8 1.4 39.5 1H44.5C44.2 1.4 44 1.9 44 2.5C44 3.9 45.1 5 46.5 5C47.9 5 49 3.9 49 2.5C49 1.9 48.8 1.4 48.5 1H50C52.8 1 55 3.2 55 6V8Z" fill="#383838"/>
</svg>
